src/images/logo.svg

<svg width="245" height="78" viewBox="0 0 245 78" fill="none" xmlns="http://www.w3.org/2000/svg">
<g clip-path="url(#clip0)">
<path d="M240.984 0H4L0 4.0135V74.0194L4 78.0329H240.984L245 74.0194V4.0135L240.984 0ZM237.377 70.3678H79.5082V45.012H70.041V70.3678H7.60656V7.63222H70.041V33.0044H79.5082V7.63222H237.393L237.377 70.3678Z" fill="#83C8D2"/>
<path d="M93.0328 59.7008H106.254L109.303 56.8469V42.4954H102.074V53.4256L100.549 54.6263H98.8771L97.2705 53.442V24.41L98.8771 23.2256H100.549L102.074 24.4346V35.4142H109.303V21.0133L106.254 18.1594H93.0328L89.9836 21.0133V56.8469L93.0328 59.7008Z" fill="#83C8D2"/>
<path d="M127.91 54.6263H122.016V40.1596H127.352V35.0852H122.016V23.2914H127.91V18.2252H114.729V59.7008H127.91V54.6263Z" fill="#83C8D2"/>
<path d="M140.565 40.1596H143.844L145.369 41.3604V59.7008H152.656V40.0198L150.262 37.5443L152.656 34.6986V18.1594H145.369V33.8844L143.844 35.0852H140.565V18.1594H133.279V59.7008H140.565V40.1596Z" fill="#83C8D2"/>
<path d="M172.229 62.9329H179.574V54.5687H177.467V18.1594H170.246V54.6263H165.369V18.1594H158.147V59.7008H172.229V62.9329Z" fill="#83C8D2"/>
<path d="M195.615 33.9996V59.7008H202.279V18.1594H195.524L189.565 43.984V18.1594H182.893V59.7008H189.582L195.615 33.9996Z" fill="#83C8D2"/>
<path d="M215.057 42.043L216.582 40.8423H219.861V59.7008H227.148V18.1594H210.877L207.771 21.0133V35.8172L210.73 38.3338L207.771 40.9245V59.6761H215.057V42.043ZM215.057 24.4346L216.582 23.2256H219.861V35.7678H216.582L215.057 34.5424V24.4346Z" fill="#83C8D2"/>
<path d="M18.4426 59.7501H59.8033V44.387H49.9098V49.8233H28.3361V28.1767H49.9098V33.6048H59.8033V18.2499H18.4426V59.7501Z" fill="#83C8D2"/>
</g>
<defs>
<clipPath id="clip0">
<rect width="245" height="78" fill="white"/>
</clipPath>
</defs>
</svg>

<svg width="245" height="78" fill="none" xmlns="http://www.w3.org/2000/svg"><g clip-path="url(#clip0)" fill="#83C8D2"><path d="M240.984 0H4L0 4.013V74.02l4 4.014h236.984L245 74.019V4.013L240.984 0zm-3.607 70.368H79.508V45.012h-9.467v25.356H7.607V7.632H70.04v25.372h9.467V7.632h157.885l-.016 62.736z"/><path d="M93.033 59.7h13.221l3.049-2.853V42.495h-7.229v10.93l-1.525 1.201h-1.672l-1.606-1.184V24.41l1.606-1.184h1.672l1.525 1.209v10.98h7.229V21.012l-3.049-2.854H93.033l-3.05 2.854v35.834l3.05 2.854zM127.91 54.626h-5.894V40.16h5.336v-5.075h-5.336V23.291h5.894v-5.066h-13.181v41.476h13.181v-5.075zM140.565 40.16h3.279l1.525 1.2V59.7h7.287V40.02l-2.394-2.476 2.394-2.845v-16.54h-7.287v15.725l-1.525 1.201h-3.279V18.16h-7.286v41.542h7.286V40.16zM172.229 62.933h7.345v-8.364h-2.107v-36.41h-7.221v36.467h-4.877V18.16h-7.222v41.542h14.082v3.232zM195.615 34v25.7h6.664V18.16h-6.755l-5.959 25.824V18.159h-6.672v41.542h6.689L195.615 34zM215.057 42.043l1.525-1.2h3.279V59.7h7.287V18.159h-16.271l-3.106 2.854v14.804l2.959 2.517-2.959 2.59v18.752h7.286V42.043zm0-17.608l1.525-1.21h3.279v12.543h-3.279l-1.525-1.226V24.435zM18.443 59.75h41.36V44.387H49.91v5.436H28.336V28.177H49.91v5.428h9.893V18.25h-41.36v41.5z"/></g><defs><clipPath id="clip0"><path fill="#fff" d="M0 0h245v78H0z"/></clipPath></defs></svg>
